Adobe/Common/LUTs/Technical/Undo QT Gamma Compensation.cube
TITLE Undo_QT_Gamma_Compensation
# Copyright 2019 Adobe
# This LUT is designed to undo the effect of "QT_Gamma_Compensation.cube"
# Apply this using Lumetri as an Input or Creative LUT

LUT_1D_SIZE 1024

0.0000000 0.0000000 0.0000000
0.0017479 0.0017479 0.0017479
0.0034262 0.0034262 0.0034262
0.0050703 0.0050703 0.0050703
0.0066899 0.0066899 0.0066899
0.0082900 0.0082900 0.0082900
0.0098738 0.0098738 0.0098738
0.0114434 0.0114434 0.0114434
0.0130004 0.0130004 0.0130004
0.0145461 0.0145461 0.0145461
0.0160815 0.0160815 0.0160815
0.0176074 0.0176074 0.0176074
0.0191244 0.0191244 0.0191244
0.0206332 0.0206332 0.0206332
0.0221342 0.0221342 0.0221342
0.0236279 0.0236279 0.0236279
0.0251146 0.0251146 0.0251146
0.0265948 0.0265948 0.0265948
0.0280686 0.0280686 0.0280686
0.0295364 0.0295364 0.0295364
0.0309985 0.0309985 0.0309985
0.0324550 0.0324550 0.0324550
0.0339061 0.0339061 0.0339061
0.0353521 0.0353521 0.0353521
0.0367931 0.0367931 0.0367931
0.0382293 0.0382293 0.0382293
0.0396609 0.0396609 0.0396609
0.0410879 0.0410879 0.0410879
0.0425105 0.0425105 0.0425105
0.0439288 0.0439288 0.0439288
0.0453430 0.0453430 0.0453430
0.0467531 0.0467531 0.0467531
0.0481592 0.0481592 0.0481592
0.0495616 0.0495616 0.0495616
0.0509601 0.0509601 0.0509601
0.0523550 0.0523550 0.0523550
0.0537463 0.0537463 0.0537463
0.0551340 0.0551340 0.0551340
0.0565183 0.0565183 0.0565183
0.0578993 0.0578993 0.0578993
0.0592769 0.0592769 0.0592769
0.0606513 0.0606513 0.0606513
0.0620225 0.0620225 0.0620225
0.0633906 0.0633906 0.0633906
0.0647557 0.0647557 0.0647557
0.0661177 0.0661177 0.0661177
0.0674768 0.0674768 0.0674768
0.0688329 0.0688329 0.0688329
0.0701862 0.0701862 0.0701862
0.0715367 0.0715367 0.0715367
0.0728844 0.0728844 0.0728844
0.0742294 0.0742294 0.0742294
0.0755718 0.0755718 0.0755718
0.0769114 0.0769114 0.0769114
0.0782485 0.0782485 0.0782485
0.0795830 0.0795830 0.0795830
0.0809149 0.0809149 0.0809149
0.0822444 0.0822444 0.0822444
0.0835714 0.0835714 0.0835714
0.0848960 0.0848960 0.0848960
0.0862182 0.0862182 0.0862182
0.0875380 0.0875380 0.0875380
0.0888555 0.0888555 0.0888555
0.0901706 0.0901706 0.0901706
0.0914835 0.0914835 0.0914835
0.0927942 0.0927942 0.0927942
0.0941026 0.0941026 0.0941026
0.0954088 0.0954088 0.0954088
0.0967129 0.0967129 0.0967129
0.0980148 0.0980148 0.0980148
0.0993146 0.0993146 0.0993146
0.1006123 0.1006123 0.1006123
0.1019079 0.1019079 0.1019079
0.1032014 0.1032014 0.1032014
0.1044930 0.1044930 0.1044930
0.1057825 0.1057825 0.1057825
0.1070700 0.1070700 0.1070700
0.1083555 0.1083555 0.1083555
0.1096391 0.1096391 0.1096391
0.1109208 0.1109208 0.1109208
0.1122006 0.1122006 0.1122006
0.1134785 0.1134785 0.1134785
0.1147545 0.1147545 0.1147545
0.1160286 0.1160286 0.1160286
0.1173009 0.1173009 0.1173009
0.1185714 0.1185714 0.1185714
0.1198401 0.1198401 0.1198401
0.1211069 0.1211069 0.1211069
0.1223721 0.1223721 0.1223721
0.1236354 0.1236354 0.1236354
0.1248970 0.1248970 0.1248970
0.1261569 0.1261569 0.1261569
0.1274151 0.1274151 0.1274151
0.1286716 0.1286716 0.1286716
0.1299264 0.1299264 0.1299264
0.1311795 0.1311795 0.1311795
0.1324310 0.1324310 0.1324310
0.1336808 0.1336808 0.1336808
0.1349290 0.1349290 0.1349290
0.1361756 0.1361756 0.1361756
0.1374205 0.1374205 0.1374205
0.1386639 0.1386639 0.1386639
0.1399057 0.1399057 0.1399057
0.1411460 0.1411460 0.1411460
0.1423846 0.1423846 0.1423846
0.1436218 0.1436218 0.1436218
0.1448574 0.1448574 0.1448574
0.1460915 0.1460915 0.1460915
0.1473241 0.1473241 0.1473241
0.1485551 0.1485551 0.1485551
0.1497847 0.1497847 0.1497847
0.1510128 0.1510128 0.1510128
0.1522395 0.1522395 0.1522395
0.1534647 0.1534647 0.1534647
0.1546884 0.1546884 0.1546884
0.1559107 0.1559107 0.1559107
0.1571316 0.1571316 0.1571316
0.1583510 0.1583510 0.1583510
0.1595691 0.1595691 0.1595691
0.1607857 0.1607857 0.1607857
0.1620010 0.1620010 0.1620010
0.1632148 0.1632148 0.1632148
0.1644273 0.1644273 0.1644273
0.1656385 0.1656385 0.1656385
0.1668483 0.1668483 0.1668483
0.1680567 0.1680567 0.1680567
0.1692638 0.1692638 0.1692638
0.1704696 0.1704696 0.1704696
0.1716740 0.1716740 0.1716740
0.1728772 0.1728772 0.1728772
0.1740790 0.1740790 0.1740790
0.1752795 0.1752795 0.1752795
0.1764787 0.1764787 0.1764787
0.1776767 0.1776767 0.1776767
0.1788734 0.1788734 0.1788734
0.1800688 0.1800688 0.1800688
0.1812629 0.1812629 0.1812629
0.1824558 0.1824558 0.1824558
0.1836475 0.1836475 0.1836475
0.1848379 0.1848379 0.1848379
0.1860271 0.1860271 0.1860271
0.1872150 0.1872150 0.1872150
0.1884018 0.1884018 0.1884018
0.1895873 0.1895873 0.1895873
0.1907716 0.1907716 0.1907716
0.1919547 0.1919547 0.1919547
0.1931366 0.1931366 0.1931366
0.1943174 0.1943174 0.1943174
0.1954969 0.1954969 0.1954969
0.1966753 0.1966753 0.1966753
0.1978525 0.1978525 0.1978525
0.1990286 0.1990286 0.1990286
0.2002035 0.2002035 0.2002035
0.2013772 0.2013772 0.2013772
0.2025498 0.2025498 0.2025498
0.2037213 0.2037213 0.2037213
0.2048917 0.2048917 0.2048917
0.2060609 0.2060609 0.2060609
0.2072289 0.2072289 0.2072289
0.2083959 0.2083959 0.2083959
0.2095618 0.2095618 0.2095618
0.2107265 0.2107265 0.2107265
0.2118902 0.2118902 0.2118902
0.2130527 0.2130527 0.2130527
0.2142142 0.2142142 0.2142142
0.2153746 0.2153746 0.2153746
0.2165339 0.2165339 0.2165339
0.2176922 0.2176922 0.2176922
0.2188493 0.2188493 0.2188493
0.2200054 0.2200054 0.2200054
0.2211605 0.2211605 0.2211605
0.2223145 0.2223145 0.2223145
0.2234674 0.2234674 0.2234674
0.2246193 0.2246193 0.2246193
0.2257701 0.2257701 0.2257701
0.2269200 0.2269200 0.2269200
0.2280688 0.2280688 0.2280688
0.2292165 0.2292165 0.2292165
0.2303633 0.2303633 0.2303633
0.2315090 0.2315090 0.2315090
0.2326537 0.2326537 0.2326537
0.2337974 0.2337974 0.2337974
0.2349401 0.2349401 0.2349401
0.2360818 0.2360818 0.2360818
0.2372225 0.2372225 0.2372225
0.2383622 0.2383622 0.2383622
0.2395009 0.2395009 0.2395009
0.2406387 0.2406387 0.2406387
0.2417754 0.2417754 0.2417754
0.2429112 0.2429112 0.2429112
0.2440460 0.2440460 0.2440460
0.2451799 0.2451799 0.2451799
0.2463128 0.2463128 0.2463128
0.2474447 0.2474447 0.2474447
0.2485757 0.2485757 0.2485757
0.2497057 0.2497057 0.2497057
0.2508348 0.2508348 0.2508348
0.2519629 0.2519629 0.2519629
0.2530901 0.2530901 0.2530901
0.2542164 0.2542164 0.2542164
0.2553417 0.2553417 0.2553417
0.2564661 0.2564661 0.2564661
0.2575895 0.2575895 0.2575895
0.2587121 0.2587121 0.2587121
0.2598337 0.2598337 0.2598337
0.2609544 0.2609544 0.2609544
0.2620742 0.2620742 0.2620742
0.2631931 0.2631931 0.2631931
0.2643111 0.2643111 0.2643111
0.2654282 0.2654282 0.2654282
0.2665443 0.2665443 0.2665443
0.2676596 0.2676596 0.2676596
0.2687740 0.2687740 0.2687740
0.2698875 0.2698875 0.2698875
0.2710002 0.2710002 0.2710002
0.2721119 0.2721119 0.2721119
0.2732228 0.2732228 0.2732228
0.2743328 0.2743328 0.2743328
0.2754419 0.2754419 0.2754419
0.2765501 0.2765501 0.2765501
0.2776575 0.2776575 0.2776575
0.2787640 0.2787640 0.2787640
0.2798697 0.2798697 0.2798697
0.2809745 0.2809745 0.2809745
0.2820785 0.2820785 0.2820785
0.2831816 0.2831816 0.2831816
0.2842838 0.2842838 0.2842838
0.2853852 0.2853852 0.2853852
0.2864858 0.2864858 0.2864858
0.2875855 0.2875855 0.2875855
0.2886844 0.2886844 0.2886844
0.2897824 0.2897824 0.2897824
0.2908797 0.2908797 0.2908797
0.2919761 0.2919761 0.2919761
0.2930716 0.2930716 0.2930716
0.2941664 0.2941664 0.2941664
0.2952603 0.2952603 0.2952603
0.2963534 0.2963534 0.2963534
0.2974457 0.2974457 0.2974457
0.2985372 0.2985372 0.2985372
0.2996279 0.2996279 0.2996279
0.3007177 0.3007177 0.3007177
0.3018068 0.3018068 0.3018068
0.3028950 0.3028950 0.3028950
0.3039825 0.3039825 0.3039825
0.3050692 0.3050692 0.3050692
0.3061550 0.3061550 0.3061550
0.3072401 0.3072401 0.3072401
0.3083244 0.3083244 0.3083244
0.3094079 0.3094079 0.3094079
0.3104906 0.3104906 0.3104906
0.3115726 0.3115726 0.3115726
0.3126537 0.3126537 0.3126537
0.3137341 0.3137341 0.3137341
0.3148137 0.3148137 0.3148137
0.3158926 0.3158926 0.3158926
0.3169706 0.3169706 0.3169706
0.3180479 0.3180479 0.3180479
0.3191245 0.3191245 0.3191245
0.3202003 0.3202003 0.3202003
0.3212753 0.3212753 0.3212753
0.3223495 0.3223495 0.3223495
0.3234230 0.3234230 0.3234230
0.3244958 0.3244958 0.3244958
0.3255678 0.3255678 0.3255678
0.3266390 0.3266390 0.3266390
0.3277095 0.3277095 0.3277095
0.3287793 0.3287793 0.3287793
0.3298483 0.3298483 0.3298483
0.3309165 0.3309165 0.3309165
0.3319841 0.3319841 0.3319841
0.3330509 0.3330509 0.3330509
0.3341169 0.3341169 0.3341169
0.3351823 0.3351823 0.3351823
0.3362469 0.3362469 0.3362469
0.3373107 0.3373107 0.3373107
0.3383739 0.3383739 0.3383739
0.3394363 0.3394363 0.3394363
0.3404980 0.3404980 0.3404980
0.3415590 0.3415590 0.3415590
0.3426193 0.3426193 0.3426193
0.3436788 0.3436788 0.3436788
0.3447377 0.3447377 0.3447377
0.3457958 0.3457958 0.3457958
0.3468532 0.3468532 0.3468532
0.3479099 0.3479099 0.3479099
0.3489659 0.3489659 0.3489659
0.3500212 0.3500212 0.3500212
0.3510758 0.3510758 0.3510758
0.3521297 0.3521297 0.3521297
0.3531829 0.3531829 0.3531829
0.3542354 0.3542354 0.3542354
0.3552872 0.3552872 0.3552872
0.3563383 0.3563383 0.3563383
0.3573887 0.3573887 0.3573887
0.3584384 0.3584384 0.3584384
0.3594875 0.3594875 0.3594875
0.3605358 0.3605358 0.3605358
0.3615835 0.3615835 0.3615835
0.3626305 0.3626305 0.3626305
0.3636768 0.3636768 0.3636768
0.3647225 0.3647225 0.3647225
0.3657674 0.3657674 0.3657674
0.3668117 0.3668117 0.3668117
0.3678553 0.3678553 0.3678553
0.3688983 0.3688983 0.3688983
0.3699405 0.3699405 0.3699405
0.3709821 0.3709821 0.3709821
0.3720231 0.3720231 0.3720231
0.3730633 0.3730633 0.3730633
0.3741029 0.3741029 0.3741029
0.3751419 0.3751419 0.3751419
0.3761802 0.3761802 0.3761802
0.3772178 0.3772178 0.3772178
0.3782548 0.3782548 0.3782548
0.3792911 0.3792911 0.3792911
0.3803267 0.3803267 0.3803267
0.3813618 0.3813618 0.3813618
0.3823961 0.3823961 0.3823961
0.3834298 0.3834298 0.3834298
0.3844629 0.3844629 0.3844629
0.3854953 0.3854953 0.3854953
0.3865271 0.3865271 0.3865271
0.3875582 0.3875582 0.3875582
0.3885887 0.3885887 0.3885887
0.3896186 0.3896186 0.3896186
0.3906478 0.3906478 0.3906478
0.3916764 0.3916764 0.3916764
0.3927043 0.3927043 0.3927043
0.3937317 0.3937317 0.3937317
0.3947583 0.3947583 0.3947583
0.3957844 0.3957844 0.3957844
0.3968098 0.3968098 0.3968098
0.3978346 0.3978346 0.3978346
0.3988588 0.3988588 0.3988588
0.3998823 0.3998823 0.3998823
0.4009053 0.4009053 0.4009053
0.4019276 0.4019276 0.4019276
0.4029493 0.4029493 0.4029493
0.4039703 0.4039703 0.4039703
0.4049908 0.4049908 0.4049908
0.4060106 0.4060106 0.4060106
0.4070298 0.4070298 0.4070298
0.4080484 0.4080484 0.4080484
0.4090664 0.4090664 0.4090664
0.4100838 0.4100838 0.4100838
0.4111006 0.4111006 0.4111006
0.4121168 0.4121168 0.4121168
0.4131323 0.4131323 0.4131323
0.4141473 0.4141473 0.4141473
0.4151617 0.4151617 0.4151617
0.4161754 0.4161754 0.4161754
0.4171886 0.4171886 0.4171886
0.4182011 0.4182011 0.4182011
0.4192131 0.4192131 0.4192131
0.4202244 0.4202244 0.4202244
0.4212352 0.4212352 0.4212352
0.4222454 0.4222454 0.4222454
0.4232549 0.4232549 0.4232549
0.4242639 0.4242639 0.4242639
0.4252723 0.4252723 0.4252723
0.4262801 0.4262801 0.4262801
0.4272874 0.4272874 0.4272874
0.4282940 0.4282940 0.4282940
0.4293000 0.4293000 0.4293000
0.4303055 0.4303055 0.4303055
0.4313104 0.4313104 0.4313104
0.4323147 0.4323147 0.4323147
0.4333184 0.4333184 0.4333184
0.4343216 0.4343216 0.4343216
0.4353241 0.4353241 0.4353241
0.4363261 0.4363261 0.4363261
0.4373275 0.4373275 0.4373275
0.4383284 0.4383284 0.4383284
0.4393286 0.4393286 0.4393286
0.4403283 0.4403283 0.4403283
0.4413274 0.4413274 0.4413274
0.4423260 0.4423260 0.4423260
0.4433240 0.4433240 0.4433240
0.4443214 0.4443214 0.4443214
0.4453183 0.4453183 0.4453183
0.4463146 0.4463146 0.4463146
0.4473103 0.4473103 0.4473103
0.4483054 0.4483054 0.4483054
0.4493000 0.4493000 0.4493000
0.4502941 0.4502941 0.4502941
0.4512876 0.4512876 0.4512876
0.4522805 0.4522805 0.4522805
0.4532729 0.4532729 0.4532729
0.4542647 0.4542647 0.4542647
0.4552559 0.4552559 0.4552559
0.4562466 0.4562466 0.4562466
0.4572368 0.4572368 0.4572368
0.4582264 0.4582264 0.4582264
0.4592154 0.4592154 0.4592154
0.4602039 0.4602039 0.4602039
0.4611919 0.4611919 0.4611919
0.4621793 0.4621793 0.4621793
0.4631662 0.4631662 0.4631662
0.4641525 0.4641525 0.4641525
0.4651383 0.4651383 0.4651383
0.4661235 0.4661235 0.4661235
0.4671082 0.4671082 0.4671082
0.4680923 0.4680923 0.4680923
0.4690759 0.4690759 0.4690759
0.4700590 0.4700590 0.4700590
0.4710415 0.4710415 0.4710415
0.4720235 0.4720235 0.4720235
0.4730050 0.4730050 0.4730050
0.4739859 0.4739859 0.4739859
0.4749663 0.4749663 0.4749663
0.4759462 0.4759462 0.4759462
0.4769255 0.4769255 0.4769255
0.4779043 0.4779043 0.4779043
0.4788826 0.4788826 0.4788826
0.4798603 0.4798603 0.4798603
0.4808375 0.4808375 0.4808375
0.4818142 0.4818142 0.4818142
0.4827904 0.4827904 0.4827904
0.4837660 0.4837660 0.4837660
0.4847412 0.4847412 0.4847412
0.4857157 0.4857157 0.4857157
0.4866898 0.4866898 0.4866898
0.4876634 0.4876634 0.4876634
0.4886364 0.4886364 0.4886364
0.4896089 0.4896089 0.4896089
0.4905809 0.4905809 0.4905809
0.4915524 0.4915524 0.4915524
0.4925234 0.4925234 0.4925234
0.4934938 0.4934938 0.4934938
0.4944637 0.4944637 0.4944637
0.4954332 0.4954332 0.4954332
0.4964021 0.4964021 0.4964021
0.4973705 0.4973705 0.4973705
0.4983384 0.4983384 0.4983384
0.4993057 0.4993057 0.4993057
0.5002726 0.5002726 0.5002726
0.5012390 0.5012390 0.5012390
0.5022048 0.5022048 0.5022048
0.5031702 0.5031702 0.5031702
0.5041350 0.5041350 0.5041350
0.5050994 0.5050994 0.5050994
0.5060632 0.5060632 0.5060632
0.5070265 0.5070265 0.5070265
0.5079894 0.5079894 0.5079894
0.5089517 0.5089517 0.5089517
0.5099135 0.5099135 0.5099135
0.5108749 0.5108749 0.5108749
0.5118357 0.5118357 0.5118357
0.5127961 0.5127961 0.5127961
0.5137559 0.5137559 0.5137559
0.5147152 0.5147152 0.5147152
0.5156741 0.5156741 0.5156741
0.5166325 0.5166325 0.5166325
0.5175903 0.5175903 0.5175903
0.5185477 0.5185477 0.5185477
0.5195046 0.5195046 0.5195046
0.5204610 0.5204610 0.5204610
0.5214169 0.5214169 0.5214169
0.5223723 0.5223723 0.5223723
0.5233273 0.5233273 0.5233273
0.5242817 0.5242817 0.5242817
0.5252357 0.5252357 0.5252357
0.5261891 0.5261891 0.5261891
0.5271421 0.5271421 0.5271421
0.5280946 0.5280946 0.5280946
0.5290466 0.5290466 0.5290466
0.5299982 0.5299982 0.5299982
0.5309493 0.5309493 0.5309493
0.5318998 0.5318998 0.5318998
0.5328499 0.5328499 0.5328499
0.5337996 0.5337996 0.5337996
0.5347487 0.5347487 0.5347487
0.5356974 0.5356974 0.5356974
0.5366455 0.5366455 0.5366455
0.5375933 0.5375933 0.5375933
0.5385405 0.5385405 0.5385405
0.5394873 0.5394873 0.5394873
0.5404336 0.5404336 0.5404336
0.5413794 0.5413794 0.5413794
0.5423247 0.5423247 0.5423247
0.5432696 0.5432696 0.5432696
0.5442140 0.5442140 0.5442140
0.5451579 0.5451579 0.5451579
0.5461014 0.5461014 0.5461014
0.5470444 0.5470444 0.5470444
0.5479869 0.5479869 0.5479869
0.5489290 0.5489290 0.5489290
0.5498706 0.5498706 0.5498706
0.5508117 0.5508117 0.5508117
0.5517524 0.5517524 0.5517524
0.5526926 0.5526926 0.5526926
0.5536324 0.5536324 0.5536324
0.5545716 0.5545716 0.5545716
0.5555105 0.5555105 0.5555105
0.5564488 0.5564488 0.5564488
0.5573867 0.5573867 0.5573867
0.5583242 0.5583242 0.5583242
0.5592612 0.5592612 0.5592612
0.5601977 0.5601977 0.5601977
0.5611337 0.5611337 0.5611337
0.5620694 0.5620694 0.5620694
0.5630045 0.5630045 0.5630045
0.5639392 0.5639392 0.5639392
0.5648735 0.5648735 0.5648735
0.5658073 0.5658073 0.5658073
0.5667406 0.5667406 0.5667406
0.5676735 0.5676735 0.5676735
0.5686059 0.5686059 0.5686059
0.5695379 0.5695379 0.5695379
0.5704694 0.5704694 0.5704694
0.5714005 0.5714005 0.5714005
0.5723312 0.5723312 0.5723312
0.5732614 0.5732614 0.5732614
0.5741911 0.5741911 0.5741911
0.5751204 0.5751204 0.5751204
0.5760493 0.5760493 0.5760493
0.5769777 0.5769777 0.5769777
0.5779056 0.5779056 0.5779056
0.5788331 0.5788331 0.5788331
0.5797602 0.5797602 0.5797602
0.5806868 0.5806868 0.5806868
0.5816130 0.5816130 0.5816130
0.5825388 0.5825388 0.5825388
0.5834641 0.5834641 0.5834641
0.5843889 0.5843889 0.5843889
0.5853134 0.5853134 0.5853134
0.5862374 0.5862374 0.5862374
0.5871609 0.5871609 0.5871609
0.5880840 0.5880840 0.5880840
0.5890067 0.5890067 0.5890067
0.5899289 0.5899289 0.5899289
0.5908507 0.5908507 0.5908507
0.5917721 0.5917721 0.5917721
0.5926931 0.5926931 0.5926931
0.5936136 0.5936136 0.5936136
0.5945336 0.5945336 0.5945336
0.5954533 0.5954533 0.5954533
0.5963725 0.5963725 0.5963725
0.5972912 0.5972912 0.5972912
0.5982096 0.5982096 0.5982096
0.5991275 0.5991275 0.5991275
0.6000450 0.6000450 0.6000450
0.6009620 0.6009620 0.6009620
0.6018787 0.6018787 0.6018787
0.6027949 0.6027949 0.6027949
0.6037106 0.6037106 0.6037106
0.6046260 0.6046260 0.6046260
0.6055409 0.6055409 0.6055409
0.6064554 0.6064554 0.6064554
0.6073695 0.6073695 0.6073695
0.6082831 0.6082831 0.6082831
0.6091963 0.6091963 0.6091963
0.6101091 0.6101091 0.6101091
0.6110215 0.6110215 0.6110215
0.6119335 0.6119335 0.6119335
0.6128450 0.6128450 0.6128450
0.6137561 0.6137561 0.6137561
0.6146668 0.6146668 0.6146668
0.6155771 0.6155771 0.6155771
0.6164870 0.6164870 0.6164870
0.6173964 0.6173964 0.6173964
0.6183054 0.6183054 0.6183054
0.6192141 0.6192141 0.6192141
0.6201222 0.6201222 0.6201222
0.6210300 0.6210300 0.6210300
0.6219374 0.6219374 0.6219374
0.6228443 0.6228443 0.6228443
0.6237509 0.6237509 0.6237509
0.6246570 0.6246570 0.6246570
0.6255627 0.6255627 0.6255627
0.6264680 0.6264680 0.6264680
0.6273729 0.6273729 0.6273729
0.6282773 0.6282773 0.6282773
0.6291814 0.6291814 0.6291814
0.6300851 0.6300851 0.6300851
0.6309883 0.6309883 0.6309883
0.6318911 0.6318911 0.6318911
0.6327936 0.6327936 0.6327936
0.6336956 0.6336956 0.6336956
0.6345972 0.6345972 0.6345972
0.6354984 0.6354984 0.6354984
0.6363992 0.6363992 0.6363992
0.6372996 0.6372996 0.6372996
0.6381996 0.6381996 0.6381996
0.6390992 0.6390992 0.6390992
0.6399983 0.6399983 0.6399983
0.6408971 0.6408971 0.6408971
0.6417955 0.6417955 0.6417955
0.6426935 0.6426935 0.6426935
0.6435910 0.6435910 0.6435910
0.6444882 0.6444882 0.6444882
0.6453850 0.6453850 0.6453850
0.6462813 0.6462813 0.6462813
0.6471773 0.6471773 0.6471773
0.6480729 0.6480729 0.6480729
0.6489680 0.6489680 0.6489680
0.6498628 0.6498628 0.6498628
0.6507572 0.6507572 0.6507572
0.6516511 0.6516511 0.6516511
0.6525447 0.6525447 0.6525447
0.6534379 0.6534379 0.6534379
0.6543307 0.6543307 0.6543307
0.6552231 0.6552231 0.6552231
0.6561151 0.6561151 0.6561151
0.6570067 0.6570067 0.6570067
0.6578979 0.6578979 0.6578979
0.6587887 0.6587887 0.6587887
0.6596791 0.6596791 0.6596791
0.6605692 0.6605692 0.6605692
0.6614588 0.6614588 0.6614588
0.6623480 0.6623480 0.6623480
0.6632369 0.6632369 0.6632369
0.6641254 0.6641254 0.6641254
0.6650135 0.6650135 0.6650135
0.6659011 0.6659011 0.6659011
0.6667884 0.6667884 0.6667884
0.6676754 0.6676754 0.6676754
0.6685619 0.6685619 0.6685619
0.6694480 0.6694480 0.6694480
0.6703338 0.6703338 0.6703338
0.6712191 0.6712191 0.6712191
0.6721041 0.6721041 0.6721041
0.6729887 0.6729887 0.6729887
0.6738729 0.6738729 0.6738729
0.6747568 0.6747568 0.6747568
0.6756402 0.6756402 0.6756402
0.6765233 0.6765233 0.6765233
0.6774059 0.6774059 0.6774059
0.6782882 0.6782882 0.6782882
0.6791701 0.6791701 0.6791701
0.6800517 0.6800517 0.6800517
0.6809328 0.6809328 0.6809328
0.6818136 0.6818136 0.6818136
0.6826940 0.6826940 0.6826940
0.6835740 0.6835740 0.6835740
0.6844536 0.6844536 0.6844536
0.6853329 0.6853329 0.6853329
0.6862117 0.6862117 0.6862117
0.6870902 0.6870902 0.6870902
0.6879683 0.6879683 0.6879683
0.6888461 0.6888461 0.6888461
0.6897235 0.6897235 0.6897235
0.6906004 0.6906004 0.6906004
0.6914771 0.6914771 0.6914771
0.6923533 0.6923533 0.6923533
0.6932292 0.6932292 0.6932292
0.6941047 0.6941047 0.6941047
0.6949798 0.6949798 0.6949798
0.6958545 0.6958545 0.6958545
0.6967289 0.6967289 0.6967289
0.6976029 0.6976029 0.6976029
0.6984765 0.6984765 0.6984765
0.6993498 0.6993498 0.6993498
0.7002227 0.7002227 0.7002227
0.7010952 0.7010952 0.7010952
0.7019673 0.7019673 0.7019673
0.7028391 0.7028391 0.7028391
0.7037105 0.7037105 0.7037105
0.7045815 0.7045815 0.7045815
0.7054522 0.7054522 0.7054522
0.7063225 0.7063225 0.7063225
0.7071924 0.7071924 0.7071924
0.7080620 0.7080620 0.7080620
0.7089312 0.7089312 0.7089312
0.7098000 0.7098000 0.7098000
0.7106685 0.7106685 0.7106685
0.7115366 0.7115366 0.7115366
0.7124043 0.7124043 0.7124043
0.7132717 0.7132717 0.7132717
0.7141387 0.7141387 0.7141387
0.7150054 0.7150054 0.7150054
0.7158717 0.7158717 0.7158717
0.7167376 0.7167376 0.7167376
0.7176031 0.7176031 0.7176031
0.7184683 0.7184683 0.7184683
0.7193332 0.7193332 0.7193332
0.7201976 0.7201976 0.7201976
0.7210618 0.7210618 0.7210618
0.7219255 0.7219255 0.7219255
0.7227889 0.7227889 0.7227889
0.7236519 0.7236519 0.7236519
0.7245146 0.7245146 0.7245146
0.7253769 0.7253769 0.7253769
0.7262389 0.7262389 0.7262389
0.7271005 0.7271005 0.7271005
0.7279617 0.7279617 0.7279617
0.7288226 0.7288226 0.7288226
0.7296831 0.7296831 0.7296831
0.7305433 0.7305433 0.7305433
0.7314031 0.7314031 0.7314031
0.7322626 0.7322626 0.7322626
0.7331217 0.7331217 0.7331217
0.7339804 0.7339804 0.7339804
0.7348388 0.7348388 0.7348388
0.7356969 0.7356969 0.7356969
0.7365546 0.7365546 0.7365546
0.7374119 0.7374119 0.7374119
0.7382689 0.7382689 0.7382689
0.7391255 0.7391255 0.7391255
0.7399818 0.7399818 0.7399818
0.7408377 0.7408377 0.7408377
0.7416933 0.7416933 0.7416933
0.7425485 0.7425485 0.7425485
0.7434034 0.7434034 0.7434034
0.7442579 0.7442579 0.7442579
0.7451121 0.7451121 0.7451121
0.7459659 0.7459659 0.7459659
0.7468194 0.7468194 0.7468194
0.7476725 0.7476725 0.7476725
0.7485253 0.7485253 0.7485253
0.7493778 0.7493778 0.7493778
0.7502299 0.7502299 0.7502299
0.7510816 0.7510816 0.7510816
0.7519330 0.7519330 0.7519330
0.7527840 0.7527840 0.7527840
0.7536347 0.7536347 0.7536347
0.7544851 0.7544851 0.7544851
0.7553351 0.7553351 0.7553351
0.7561848 0.7561848 0.7561848
0.7570341 0.7570341 0.7570341
0.7578831 0.7578831 0.7578831
0.7587317 0.7587317 0.7587317
0.7595800 0.7595800 0.7595800
0.7604280 0.7604280 0.7604280
0.7612756 0.7612756 0.7612756
0.7621228 0.7621228 0.7621228
0.7629698 0.7629698 0.7629698
0.7638163 0.7638163 0.7638163
0.7646626 0.7646626 0.7646626
0.7655085 0.7655085 0.7655085
0.7663541 0.7663541 0.7663541
0.7671993 0.7671993 0.7671993
0.7680442 0.7680442 0.7680442
0.7688887 0.7688887 0.7688887
0.7697329 0.7697329 0.7697329
0.7705768 0.7705768 0.7705768
0.7714203 0.7714203 0.7714203
0.7722635 0.7722635 0.7722635
0.7731063 0.7731063 0.7731063
0.7739489 0.7739489 0.7739489
0.7747910 0.7747910 0.7747910
0.7756329 0.7756329 0.7756329
0.7764744 0.7764744 0.7764744
0.7773156 0.7773156 0.7773156
0.7781564 0.7781564 0.7781564
0.7789969 0.7789969 0.7789969
0.7798371 0.7798371 0.7798371
0.7806769 0.7806769 0.7806769
0.7815164 0.7815164 0.7815164
0.7823556 0.7823556 0.7823556
0.7831944 0.7831944 0.7831944
0.7840329 0.7840329 0.7840329
0.7848711 0.7848711 0.7848711
0.7857089 0.7857089 0.7857089
0.7865464 0.7865464 0.7865464
0.7873836 0.7873836 0.7873836
0.7882204 0.7882204 0.7882204
0.7890569 0.7890569 0.7890569
0.7898931 0.7898931 0.7898931
0.7907290 0.7907290 0.7907290
0.7915645 0.7915645 0.7915645
0.7923997 0.7923997 0.7923997
0.7932345 0.7932345 0.7932345
0.7940691 0.7940691 0.7940691
0.7949033 0.7949033 0.7949033
0.7957372 0.7957372 0.7957372
